icons/camera.svg

<?xml version="1.0" encoding="UTF-8"?>
<svg width="50" height="50" version="1.1" viewBox="0 0 50 50" xmlns="http://www.w3.org/2000/svg">
<path d="m20 7.5c-2.5 0-3.75 2.5-3.75 2.5l-1.25 2.5h-5c-5 0-5 5-5 5v20c0 5 5 5 5 5h30c5 0 5-5 5-5v-20c0-5-5-5-5-5h-5l-1.25-2.5s-1.25-2.5-3.75-2.5zm5 10a10 10 0 0 1 10 10 10 10 0 0 1-10 10 10 10 0 0 1-10-10 10 10 0 0 1 10-10zm0 3.75a6.25 6.25 0 0 0-6.25 6.25 6.25 6.25 0 0 0 6.25 6.25 6.25 6.25 0 0 0 6.25-6.25 6.25 6.25 0 0 0-6.25-6.25z"/>
</svg>

<?xml version="1.0" encoding="UTF-8" standalone="no"?>
<svg
   xmlns:dc="http://purl.org/dc/elements/1.1/"
   xmlns:cc="http://creativecommons.org/ns#"
   xmlns:rdf="http://www.w3.org/1999/02/22-rdf-syntax-ns#"
   xmlns:svg="http://www.w3.org/2000/svg"
   xmlns="http://www.w3.org/2000/svg"
   id="svg4"
   viewBox="0 0 50 50"
   version="1.1"
   width="50"
   height="50">
  <metadata
     id="metadata10">
    <rdf:RDF>
      <cc:Work
         rdf:about="">
        <dc:format>image/svg+xml</dc:format>
        <dc:type
           rdf:resource="http://purl.org/dc/dcmitype/StillImage" />
        <dc:title></dc:title>
      </cc:Work>
    </rdf:RDF>
  </metadata>
  <defs
     id="defs8" />
  <path
     id="path1403"
     d="M 20,7.5 C 17.5,7.5 16.25,10 16.25,10 L 15,12.5 h -5 c -5,0 -5,5 -5,5 v 20 c 0,5 5,5 5,5 h 30 c 5,0 5,-5 5,-5 v -20 c 0,-5 -5,-5 -5,-5 H 35 L 33.75,10 C 33.75,10 32.5,7.5 30,7.5 Z m 5,10 a 10,10 0 0 1 10,10 10,10 0 0 1 -10,10 10,10 0 0 1 -10,-10 10,10 0 0 1 10,-10 z m 0,3.75 A 6.25,6.25 0 0 0 18.75,27.5 6.25,6.25 0 0 0 25,33.75 6.25,6.25 0 0 0 31.25,27.5 6.25,6.25 0 0 0 25,21.25 Z" />
</svg>
